X:1
T:C Major Oliver Holden, 1800
T:Isaac Watts, 1709 (Hymn 61, Book 1)   88. 88. (L. M.)
T:Persia No copyright. Transcribed from Plain Psalmody, 1800.
%%score [ 1 2 3 4 ]
L:1/8
M:4/4
K:C
V:1 treble nm="Treble" snm="Tr."
V:2 treble nm="Counter" snm="C."
V:3 treble-8 nm="Tenor" snm="T."
V:4 bass nm="Bass" snm="B."
V:1
 c4 c2 c2 | e4 d4 | e2 c2 B2 d2 | e2 e2 c2 c2 | c4 B4 | c6 z2 | z8 | z4 z2 c2 | e3 d c2 e2 | %9
w: |||||||||
 f2 f2 e3 d | c2 A2 G3 A | GF ED E2 c2 | G3 B c2 B2 | c2 c2 B3 B | c3 d e2 d2 | c4 B4 | c8 |] %17
w: * * * Be|hum- ble hon- ors|paid * be- * low, *||||||
V:2
 E4 E2 E2 | G4 F4 | E2 G2 G2 F2 | E2 G2 E2 A2 | G4 F4 | E6 z2 | z8 | z4 z2 E2 | G3 G G2 G2 | %9
w: 1.~Now to the|Lord, who|makes us know The|won- ders of His|dy- ing|love,||And|strains of no- bler|
 G2 G2 G2 z2 | z8 | z4 z2 E2 | E3 F G2 F2 | E2 E2 D3 G | G3 G G2 A2 | G4 F4 | E8 |] %17
w: praise a- bove,||And|strains of no- bler|praise a- bove, And|strains of no- bler|praise a-|bove.|
V:3
 G4 G2 G2 | c4 d4 | c2 e2 d2 B2 | c2 A2 G2 F2 | E4 D4 | C6 C2 | E2 E2 G2 G2 | A3 B G2 G2 | %8
w: |||||* Be|hum- ble hon- ors|paid be- low, *|
 c3 d e2 c2 | d2 d2 c2 z2 | z8 | z4 z2 G2 | c3 d e2 d2 | c2 c2 d3 d | e3 f g2 f2 | e4 d4 | c8 |] %17
w: |||||||||
V:4
 C,4 C,2 C,2 | C,4 G,4 | E,2 E,2 G,2 G,2 | E,2 C,2 E,2 F,2 | G,4 G,,4 | C,6 C,2 | C,2 C,2 E,2 E,2 | %7
w: |||||||
 F,3 D, E,2 C,2 | C,3 G, C2 C,2 | G,2 G,2 C3 G, | A,2 A,2 E,3 F, | E,D, C,B,, C,2 C,2 | %12
w: ||* * * Be|hum- ble hon- ors|paid * be- * low, *|
 C,3 G, C2 G,2 | C,2 C,2 G,3 G, | C3 D C2 F,2 | G,4 G,4 | C,8 |] %17
w: |||||

